X: 4156
M: C|
L: 1/8
K: Bb
|:\
f/f/f f2 dfdB |
g/g/g g2 egec |\
[1 f/f/f f2 dfdB | ecdB AcAF :|\
[2 dBec fdge | dBcA B2B,2 |]



